X: 459
T: Skopski Cocek
O: Macedonia
M: 4/4
L: 1/8
Q: 1/4=240
K: GPhr
|:zGBcdzdc |BcBAGFGA |BcBABcBA |cGGFGFG2 ::
  zGBcdzdc |BcBAGFGA |BcBABcBA |cGGFGFG2 :|
  zFG=ABzBz|B=AGABzBz|zFG=ABzBz|B=AGABzBz|:
  cBcBA2G2-|G2FGABz2 |cBcBA2G2-|G2FG2G2z ::
  defdcdzz |defdcdzz |cdecBczz |cdecBczz |
  BcdBABzz |BcdBABzz |ddccBBAA |BcBAG4   :|



